X:1
T:E Major Oliver Holden, 1800
T:Samson Occom, 1753 86. 86 (C. M.)
T:Radiant Seraph No copyright. Transcribed from Plain Psalmody, 1800.
%%score [ 1 2 3 4 ]
L:1/8
M:4/4
K:E
V:1 treble nm="Treble" snm="Tr."
V:2 treble nm="Counter" snm="C."
V:3 treble-8 nm="Tenor" snm="T."
V:4 bass nm="Bass" snm="B."
V:1
 B4 G2 G2 | B2 G2 AG cB | B4 B4 | G2 B2 f2 B2 | G4 ^A4 | B6 c2 | (BAGA B2) e2 | d4 c4 | B8 | %9
 z4 B4 | B2 B2 B2 B2 | B4 e4 | d8 | e4 B2 cd | e2 B2 c2 d2 | e8 | e4 e2 e2 | e4 d4 | e8 |] %19
V:2
 E4 E2 E2 | E2 E2 E2 E2 | E4 G4 | E2 E2 E2 E2 | G4 F4 | F6 E2 | E6 A2 | G4 F4 | F8 | z4 G4 | %10
w: 1.~Say, ra- diant|se- raph, throned in|light, Did|love e'er tower to|such a|height, Or|glo- ry|sink so|low?|This|
 FE FG F2 G2 | F4 F4 | F8 | E4 B,2 CD | E2 B,2 C2 D2 | E8 | E4 G2 E2 | B,4 [B,F]4 | [B,G]8 |] %19
w: won- * der * an- gels|scarce de-|clare,|An- gels the *|rap- ture scarce can|bear,|Or e- qual|thanks be-|stow.|
V:3
 E4 B2 B2 | G2 B2 cB cd | e4 e4 | B2 G2 cB cd | e4 c4 | B6 A2 | (GF E2 e2) c2 | B4 ^A4 | B8 | %9
 z4 e4 | dc de fd Be | d4 c4 | B8 | e4 B2 cd | e2 B2 c2 d2 | e8 | c4 Be cA | G4 F4 | E8 |] %19
V:4
 E,4 E,2 E,2 | E,2 E,2 E,2 E,2 | E,4 E,4 | E,2 E,2 E,2 E,2 | E,4 F,4 | B,,6 E,2 | E,6 E,2 | %7
 F,4 F,4 | B,,8 | z4 E,4 | B,2 B,2 B,2 B,2 | B,4 F,4 | B,8 | E,4 B,,2 C,D, | E,2 B,,2 C,2 D,2 | %15
 E,8 | A,4 G,2 A,2 | B,4 B,,4 | E,8 |] %19

